src/sources/forus-platform/resources/_platform-common/assets/img/features/icons/digid/icon-1.svg

<svg width="59" height="58" viewBox="0 0 59 58" fill="none" xmlns="http://www.w3.org/2000/svg">
    <rect x="0.5" width="58" height="58" rx="8" fill="#F7F9FC"/>
    <path d="M30.3786 44.8574C30.0949 44.952 29.7994 45 29.5002 45C29.2012 45 28.9057 44.9521 28.622 44.8574L28.5431 44.8311L28.4667 44.7982C21.2625 41.6879 16.6074 34.6078 16.6074 26.7609V19.4492C16.6074 19.1385 16.8568 18.8853 17.1675 18.8807L18.6093 18.8591C20.7425 18.8267 22.4369 17.1299 22.4665 14.9963L22.4862 13.5608C22.4905 13.2498 22.7438 13 23.0547 13H35.9456C36.2566 13 36.5099 13.2498 36.5141 13.5608L36.534 14.9963C36.5636 17.1299 38.2581 18.8267 40.3916 18.8591L41.833 18.8808C42.1436 18.8854 42.3931 19.1386 42.3931 19.4493V26.7612C42.3931 34.6013 37.7317 41.6908 30.5337 44.7982L30.4574 44.8311L30.3786 44.8574Z" fill="#092DAA"/>
    <path d="M24.4901 14.9402C24.4442 14.9402 24.4074 14.9772 24.4067 15.0231C24.3628 18.1907 21.8052 20.7509 18.6386 20.7989C18.5884 20.7997 18.5479 20.84 18.5479 20.8902V26.7608C18.5479 33.8267 22.7489 40.2162 29.236 43.0168C29.4077 43.0741 29.5933 43.0741 29.765 43.0168C36.2521 40.2161 40.4531 33.8267 40.4531 26.7608V20.8902C40.4531 20.84 40.4126 20.7997 40.3623 20.7989C37.1957 20.7509 34.6382 18.1907 34.5942 15.0231C34.5936 14.9772 34.5568 14.9402 34.5108 14.9402H24.4901Z" fill="#305DFC"/>
    <path d="M40.362 20.7989C37.1954 20.7509 34.6379 18.1907 34.594 15.0231C34.5933 14.9772 34.5565 14.9402 34.5106 14.9402H31.4374C31.9666 15.3717 32.4196 15.9021 32.7643 16.5163C33.1603 17.222 33.6983 17.8373 34.3395 18.3237C36.5416 19.9941 37.8774 22.5634 37.8774 25.3274V25.4731C37.8774 32.539 33.6764 38.9284 27.1893 41.7291C27.0821 41.7648 26.9696 41.7783 26.8584 41.7694C27.6106 42.2401 28.4044 42.6579 29.2357 43.0169C29.4074 43.0741 29.593 43.0741 29.7647 43.0169C36.2518 40.2162 40.4528 33.8267 40.4528 26.7609V20.8903C40.4528 20.84 40.4123 20.7997 40.362 20.7989Z" fill="#1C45D3"/>
    <path d="M33.6672 24.4972L28.3447 29.7278C28.2936 29.778 28.2108 29.778 28.1597 29.7278L25.3335 26.9504C25.2824 26.9001 25.1995 26.9001 25.1484 26.9504L23.4129 28.6559C23.3617 28.7062 23.3617 28.7875 23.4129 28.8378L28.1597 33.5027C28.2108 33.5529 28.2936 33.5529 28.3447 33.5027L35.5878 26.3847C35.6389 26.3344 35.6389 26.253 35.5878 26.2028L33.8522 24.4972C33.8011 24.447 33.7183 24.447 33.6672 24.4972Z" fill="white"/>
</svg>

<svg width="59" height="58" fill="none" xmlns="http://www.w3.org/2000/svg"><rect x=".5" width="58" height="58" rx="8" fill="#F7F9FC"/><path d="M30.379 44.857a2.772 2.772 0 0 1-1.757 0l-.079-.026-.076-.033a19.632 19.632 0 0 1-11.86-18.037v-7.312c0-.31.25-.564.56-.568l1.442-.022a3.898 3.898 0 0 0 3.857-3.863l.02-1.435a.569.569 0 0 1 .569-.561h12.89c.312 0 .565.25.57.56l.019 1.436a3.898 3.898 0 0 0 3.858 3.863l1.441.022c.31.004.56.258.56.568v7.312c0 7.84-4.661 14.93-11.86 18.037l-.076.033-.078.026Z" fill="#092DAA"/><path d="M24.49 14.94a.084.084 0 0 0-.083.083 5.86 5.86 0 0 1-5.768 5.776c-.05 0-.091.041-.091.091v5.87a17.706 17.706 0 0 0 10.688 16.257.835.835 0 0 0 .529 0A17.706 17.706 0 0 0 40.453 26.76v-5.87c0-.051-.04-.091-.09-.092a5.86 5.86 0 0 1-5.769-5.776.084.084 0 0 0-.083-.083H24.49Z" fill="#305DFC"/><path d="M40.362 20.799a5.86 5.86 0 0 1-5.768-5.776.084.084 0 0 0-.083-.083h-3.074c.53.432.983.962 1.327 1.576a5.886 5.886 0 0 0 1.575 1.808c2.203 1.67 3.538 4.24 3.538 7.003v.146A17.706 17.706 0 0 1 27.19 41.73a.836.836 0 0 1-.33.04c.752.471 1.545.889 2.377 1.248a.837.837 0 0 0 .529 0A17.706 17.706 0 0 0 40.453 26.76v-5.87c0-.051-.04-.091-.091-.092Z" fill="#1C45D3"/><path d="m33.667 24.497-5.322 5.23a.132.132 0 0 1-.185 0l-2.826-2.777a.132.132 0 0 0-.186 0l-1.735 1.706a.127.127 0 0 0 0 .182l4.747 4.665c.05.05.134.05.185 0l7.243-7.118a.127.127 0 0 0 0-.182l-1.736-1.706a.132.132 0 0 0-.185 0Z" fill="#fff"/></svg>
